X:1
T:Tant de travail
T:Tant de travail
T:Nicolas Gombert
T:Source : Le Parangon des Chansons---IXième Livre---Lyon--- J.Moderne---1541 Editor : André Vierendeels (09/12/14).
C:Nicolas Gombert
%%score [ 1 [ 2 3 ] 4 ]
L:1/8
Q:1/4=80
M:2/2
K:F
V:1 treble nm="Superius" snm="S"
V:2 treble-8 nm="Tenor 1" snm="T 1"
V:3 treble-8 nm="Tenor 2" snm="T 2"
V:4 bass nm="Bassus" snm="B"
V:1
 z4 D3 E | FG A4 GF | G2 B4 AG | F2 G4 F2 | G4 F3 G | A2 B3 A A2 | G4 z2 G2 | F2 D2 E2 E2 | %8
w: Tant _|_ _ de _ _|_ tra- * *||vail, tant _|_ de _ tra-|vail me|con- vient il souf-|
 D2 E3 D D2- | D2 C2 D2 d2 | c2 A2 B2 B2 | A2 F2 G2 A2- | AG G4 F2 | G4 z2 D2 | D2 D2 A2 A2 | %15
w: |* * frir, me|con- vient il souf-||* * ,- *|frir, quant|me sou- vient de|
 c2 c2 B4- | B2 AG A4 | z2 A2 c3 c | c2 G2 B4- | B2 G2 A4- | A4 z2 d2- | d2 c2 B2 B2 | %22
w: la bel- *|* * * le,|que j'ay lais-|sé au de-|* par- tir,|_ que|_ j'ay lais- sé|
 A2 G2 F2 E2- |"^#" E2 D4 C2 | D4 z2 A2- | A2 F2 B3 A/G/ | A2 A2 B3 A | G2 F2 E4 | D2 F4 D2 | %29
w: au de- * *|* * par-|tir, onc-|* ques ne _ _|fut au mon- *|* de tel-|le, onc- ques|
 G4 F4- | F4 z4 | z4 A4 | B3 A G2 F2 | ED D4 C2 | D2 A2 c3 B | A2 G3 F F2 | G2 B4 A2- | %37
w: ne fut|_|au|mon- * * de|tel- * * *|le, au- mon- *||de tel- *|
"^#" AG G4 F2 | G8 |] %39
w: |le.|
V:2
 G3 A Bc d2- | d2 cB c2 d2 | e2 d4 cB | A2 B2 A4 | GA Bc de f2- | f2 ed e2 f2 | B3 A G4 | A8 | z8 | %9
w: Tant _ _ _ de|_ _ _ _ tra-|||vail, _ _ _ _ _ tant|_ _ _ _ de|tra- * *|vail,||
 g4 f2 d2 | e2 e2 d4 | f4 e2 c2 |"^b""^b" e2 e2 d3 c | B2 G2 G2 G2 | d2 d2 f2 f2 | e2 c2 d4- | %16
w: me con- vient|il souf- frir,|me con- vient|il souf frir, _|_ quant me sou|vient de la bel-|le que j'ay|
 d2 e2 fedc | d4 c4- | c2 e2 g2 g2 | f2 ed e4 | f4 g4 | f2 e2 d2 _e2- | e d2 c d2 c2- | c2 B2 A4 | %24
w: _ lais- sé, _ _ _|_ _|* que j'ay lais-|sé au _ de-|par- tir,|que j'ay lais- sé|_ _ _ _ au|_ de- par-|
 F8 | z8 | d6 B2 |"^b" e2 d4 c2 | d4 d4 | B2 c2 d4- | d2 d2 c2 B2 | AG G4 F2 | G2 B2 d3 c | %33
w: tir,||onc- ques|ne fut au|mon- de|tel- * le,|_ au mon- de|tel- * * *|le, au mon- *|
 B2 A2 G4 | F2 f2 g3 f | f2 e2 d2 c2 | d3 c defg | c4 d4 | d8 |] %39
w: * de tel-|le, au mon- *|* de tel- *|||le.|
V:3
 z8 | z8 | z8 | z8 | G3 A Bc d2- | d2 cB c3 d |"^b" e2 d3 B c2 | d3 d c2 A2 | B4 A2 B2- | %9
w: ||||Tant _ _ _ de|_ _ _ _ _|* tra- * *|||
 B2 AG A2 B2 | A4 z4 | d4 c2 A2 | B2 c2 A4 | G2 B4 AG | A4 z4 | z4 G4 | G2 G2 d2 d2 | f2 f2 e4- | %18
w: |vail,|me con- vient|il souf- frir,|quant me sou- *|vient|quant|me sou- vient de|la bel- le|
 e2 c2 d2 e2- |"^#" ed d4 c2 | d3 d c2 B2 | A4 z4 | z4 A4 | G2 F2 E4 | D4 A4 | F2 B3 A G2- | %26
w: _ que j'ay lais-||sé- au de- par-|tir,|au|de _ par-|tir, onc-|ques ne _ _|
 G2 F2 G4 | z4 A4- | A2 F2 B4- | B2 AG A2 A2 | B3 A G2 F2 | E2 D4 C2 | D4 z4 | z8 | d4 e3 d | %35
w: _ _ fut|au|_ mon- de|_ _ _ _ tel-|||le,||au mon- *|
 c2 B2 A4 | G3 A B2 c2- | cB G2 A4 | G8 |] %39
w: * de tel-|||le.|
V:4
 z8 | z8 | G,,3 A,, B,,C, D,2- | D,2 C,B,, C,2 D,2 |"^b" E,4 D,3 E, | F,2 G,3 F, F,2 | G,3 F, E,4 | %7
w: ||Tant _ _ _ de|_ _ _ _ tra-||||
 D,4 z4 | G,4 F,2 D,2 |"^b""^b" E,2 E,2 D,4 | z4 G,4 | F,2 D,2 E,2 F,2 | G,2 C,2 D,4 | G,,4 z4 | %14
w: vail,|me con- vient|il souf- frir,|me|con- vient il _|_ _ souf-|frir,|
 D,4 D,2 D,2 | A,4 z4 | z4 D,4 | D,2 D,2 A,2 A,2 | C2 C2 B,2 G,2 | B,4 A,4 | D,4 z4 | z4 G,4 | %22
w: quant me sou-|vient|quant|me sou- vient de|la bel- le que|j'ay lais-|sé|au|
"^b" F,2 E,2 D,2 A,,2 | C,2 D,2 A,,4 | D,4 z4 |"^b" D,4 B,,2 E,2 | D,4 z4 | z8 | D,6 B,,2 | %29
w: de- par- tir, au|de- * par-|tir,|onc- ques ne|fut||onc- ques|
"^b" E,4 D,4 | z2 D,2 E,2 D,2 | C,2 B,,2 A,,4 | G,,2 G,,2 B,3 A, | G,2 F,2 E,4 | %34
w: ne fut|onc- ques ne|fut au mon-|de, au mon- *|* de tel-|
 D,2 D,2 C,3 D,/E,/ | F,2 G,2 D,2 A,2 | B,3 A, G,2 F,2 |"^b" E,4 D,4 | G,,8 |] %39
w: le, au mon- * *|* de tel- *|||le.|

